front/src/lib/assets/proconnect/logo_proconnect.svg

<svg width="40" height="46" viewBox="0 0 40 46" fill="none" xmlns="http://www.w3.org/2000/svg">
<path d="M34.9922 13.9128L19.9982 5.23584L5.00424 13.9968C4.91164 14.0496 4.83464 14.1258 4.78094 14.2178C4.72724 14.3098 4.69864 14.4143 4.69824 14.5208V31.4688C4.70414 31.5742 4.73494 31.6766 4.78814 31.7677C4.84134 31.8588 4.91534 31.936 5.00424 31.9928L19.9962 40.5928L34.9902 31.8868C35.0791 31.83 35.1532 31.7529 35.2065 31.6618C35.2597 31.5707 35.2904 31.4682 35.2962 31.3628V14.4408C35.2968 14.3338 35.2689 14.2285 35.2155 14.1358C35.1621 14.043 35.0851 13.9661 34.9922 13.9128Z" fill="#000091"/>
<path d="M14.6407 14.4128L9.61169 23.0408L5.05469 13.8658L10.4447 10.7528L14.9337 13.9128L14.6407 14.4128ZM35.2967 31.3928V14.4348C35.2967 14.3283 35.2683 14.2238 35.2146 14.1319C35.1608 14.04 35.0835 13.964 34.9907 13.9118L19.9977 5.23584" fill="#FCC63A"/>
<path d="M4.70024 31.3928L20.0002 5.23584V40.5978L5.00424 31.9928C4.91534 31.936 4.84134 31.8588 4.78814 31.7677C4.73494 31.6766 4.70414 31.5742 4.69824 31.4688V14.5208L4.70024 31.3928ZM29.3692 10.6578L34.8272 13.8128L30.3382 22.9628L24.9512 13.7268L29.3692 10.6578Z" fill="#0063CB"/>
<path d="M39.606 11.1178L20.416 0.0978699C20.2868 0.0334999 20.1444 0 20 0C19.8556 0 19.7132 0.0334999 19.584 0.0978699L0.394 11.1178C0.2785 11.1947 0.1827 11.2977 0.1142 11.4184C0.0457996 11.5391 0.0067 11.6742 0 11.8128V33.8128C0.0059 33.9523 0.0446001 34.0884 0.1131 34.21C0.1816 34.3317 0.2778 34.4354 0.394 34.5128L19.583 45.5328C19.7122 45.5972 19.8546 45.6307 19.999 45.6307C20.1434 45.6307 20.2858 45.5972 20.415 45.5328L39.606 34.5128C39.7222 34.4354 39.8184 34.3317 39.8869 34.21C39.9554 34.0884 39.9941 33.9523 40 33.8128V11.8128C39.9933 11.6742 39.9542 11.5391 39.8858 11.4184C39.8173 11.2977 39.7215 11.1947 39.606 11.1178ZM10.789 28.8738H10.868C10.826 28.8738 10.789 28.8808 10.789 28.9238C10.789 29.0238 10.94 28.9238 10.989 29.0238C10.7514 29.0303 10.5257 29.1294 10.36 29.2998C10.36 29.3508 10.46 29.3508 10.511 29.3508C10.436 29.4508 10.285 29.4008 10.234 29.5018C10.2611 29.5289 10.2961 29.5464 10.334 29.5518C10.284 29.5518 10.234 29.5518 10.234 29.6028V29.7538C10.108 29.7538 10.058 29.8538 9.957 29.9048C10.157 30.0558 10.284 29.9048 10.485 29.9048C9.957 30.1048 9.529 30.3828 9.001 30.5338C8.901 30.5338 9.001 30.6848 8.901 30.6848C9.052 30.7848 9.128 30.6348 9.278 30.6348C8.624 31.0118 7.945 31.3348 7.241 31.7668C7.1868 31.8208 7.1516 31.891 7.141 31.9668H6.941C6.841 32.0168 6.891 32.1428 6.79 32.2438C7.016 32.3948 7.29 32.0438 7.444 32.2438C7.494 32.2438 7.344 32.2938 7.244 32.2938C7.194 32.2938 7.194 32.3938 7.144 32.3938H6.99C6.89 32.4688 6.79 32.5198 6.79 32.6698C6.7466 32.6618 6.7019 32.6671 6.6615 32.6849C6.6212 32.7028 6.5872 32.7324 6.564 32.7698C7.638 32.7656 8.7027 32.5699 9.708 32.1918C10.4877 31.7948 11.1938 31.2676 11.796 30.6328C11.8231 30.6598 11.8406 30.695 11.846 30.7328C11.6989 31.1693 11.4166 31.5476 11.04 31.8128C10.763 31.9638 10.562 32.1898 10.34 32.2908C10.1917 32.3738 10.0487 32.4659 9.912 32.5668C9.2797 32.7635 8.6306 32.9015 7.973 32.9788L7.668 33.0228C7.443 33.0558 7.219 33.0918 6.997 33.1308L5.004 31.9928C4.9311 31.9469 4.868 31.8869 4.8186 31.8163C4.7691 31.7458 4.7343 31.6661 4.716 31.5818C4.7493 31.564 4.7808 31.5429 4.81 31.5188C4.779 31.4859 4.7401 31.4615 4.697 31.4478V30.7978C5.7449 30.6115 6.7655 30.2951 7.735 29.8558C6.8177 29.2183 5.7868 28.7624 4.698 28.5128V26.9978C5.2531 27.0888 5.8008 27.2198 6.337 27.3898C6.7498 27.5415 7.1459 27.7352 7.519 27.9678C7.6656 28.1088 7.8257 28.2351 7.997 28.3448C8.1177 28.4137 8.2525 28.454 8.3912 28.4627C8.5299 28.4713 8.6687 28.4481 8.797 28.3948H9.127C9.8434 28.2764 10.5135 27.9633 11.064 27.4898C11.064 27.5398 11.114 27.5398 11.164 27.5398C11.0857 27.9385 10.941 28.3211 10.736 28.6718C10.739 28.7228 10.688 28.8238 10.789 28.8738ZM13.606 32.4448C13.857 32.3448 14.006 32.1678 14.235 32.0678C14.185 32.1178 14.185 32.2188 14.135 32.2678C13.9474 32.3851 13.7707 32.5189 13.607 32.6678C13.0413 33.1664 12.5116 33.7044 12.022 34.2778C11.77 34.5778 11.494 34.8558 11.222 35.1328C11.1256 35.2229 11.0219 35.3049 10.912 35.3778L8.385 33.9278C8.7444 33.9582 9.1063 33.9404 9.461 33.8748C9.7554 33.7923 10.0416 33.6828 10.316 33.5478V33.6478C11.016 33.3708 11.548 32.7418 12.253 32.5158C12.278 32.5158 12.379 32.6158 12.479 32.5658C12.6601 32.3414 12.8904 32.1615 13.152 32.0402C13.4136 31.9188 13.6997 31.8592 13.988 31.8658C13.988 31.9158 13.988 31.9658 14.038 31.9658H14.063C13.912 32.0918 13.736 32.2168 13.563 32.3428C13.506 32.3948 13.556 32.4448 13.606 32.4448ZM4.698 26.2808V26.0948C5.2161 25.9593 5.7505 25.8961 6.286 25.9068C6.4443 25.8816 6.6057 25.8816 6.764 25.9068C6.0584 25.9061 5.3585 26.0328 4.698 26.2808ZM35.298 31.3688C35.2922 31.4742 35.2615 31.5767 35.2083 31.6678C35.155 31.7589 35.0809 31.836 34.992 31.8928L24.913 37.7438C23.7558 37.4126 22.618 37.017 21.505 36.5588C21.3437 36.2079 21.256 35.8276 21.2474 35.4415C21.2388 35.0554 21.3095 34.6716 21.455 34.3138C21.5349 34.0059 21.6531 33.7092 21.807 33.4308C21.832 33.4058 21.857 33.3808 21.857 33.3548C21.8636 33.3548 21.87 33.3522 21.8747 33.3475C21.8794 33.3428 21.882 33.3365 21.882 33.3298C21.9931 33.1353 22.1191 32.9498 22.259 32.7748L22.274 32.7598L22.294 32.7388L22.309 32.7238C22.309 32.6988 22.334 32.6738 22.359 32.6478C22.384 32.5968 22.434 32.5718 22.459 32.5218C22.6346 32.336 22.8286 32.1684 23.038 32.0218C23.2507 31.9448 23.4695 31.8856 23.692 31.8448C24.503 31.9045 25.3095 32.0141 26.107 32.1728C26.205 32.1876 26.2992 32.2215 26.384 32.2728C26.6851 32.3315 26.9962 32.3143 27.289 32.2228C27.4799 32.1879 27.6587 32.1047 27.8084 31.9811C27.9581 31.8575 28.0736 31.6977 28.144 31.5168C28.232 31.3556 28.2823 31.1765 28.2909 30.9931C28.2996 30.8096 28.2664 30.6266 28.194 30.4578C28.016 30.1818 28.181 30.0208 28.375 29.8678L28.443 29.8128C28.5294 29.7516 28.6071 29.679 28.674 29.5968C28.8 29.3448 28.574 29.1968 28.523 28.9668C28.473 28.8668 28.297 28.9168 28.196 28.7668C28.548 28.6158 29.051 28.3378 28.825 27.9098C28.674 27.6828 28.448 27.2798 28.725 27.0528C29.077 26.8528 29.58 26.9018 29.731 26.5738C29.7804 26.3832 29.7794 26.183 29.7282 25.9928C29.6771 25.8026 29.5774 25.629 29.439 25.4888L29.364 25.3808C29.289 25.2738 29.215 25.1668 29.153 25.0608C28.9941 24.797 28.8177 24.5441 28.625 24.3038C28.405 23.9924 28.2275 23.6531 28.097 23.2948C27.946 22.9168 28.147 22.5888 28.147 22.2108C28.1618 21.4827 28.0512 20.7574 27.82 20.0668C27.694 19.7138 27.644 19.3358 27.493 19.0078C27.474 18.797 27.3956 18.5959 27.267 18.4278C27.2421 18.3767 27.2292 18.3207 27.2292 18.2638C27.2292 18.207 27.2421 18.1509 27.267 18.0998C27.472 17.9553 27.6656 17.7952 27.846 17.6208C27.9017 17.4985 27.9122 17.3604 27.8756 17.2311C27.839 17.1018 27.7576 16.9897 27.646 16.9148C27.319 16.7638 27.346 17.2428 27.118 17.3438H26.967C26.917 17.2178 27.017 17.1668 27.118 17.0668C27.118 17.0168 27.118 16.9158 27.068 16.9158C26.868 16.9158 26.691 16.8648 26.64 16.7648C26.158 16.1642 25.5113 15.7173 24.779 15.4788C24.967 15.5366 25.1615 15.5702 25.358 15.5788C25.6956 15.6502 26.0471 15.6153 26.364 15.4788C26.591 15.4028 26.641 14.9998 26.741 14.7728C26.7613 14.6629 26.7583 14.55 26.7323 14.4413C26.7063 14.3327 26.6578 14.2306 26.59 14.1418C26.3629 13.8117 26.0495 13.5502 25.684 13.3858C25.508 13.3098 25.231 13.1588 25.005 13.0328C24.928 12.9787 24.8434 12.9362 24.754 12.9068C21.789 11.4218 15.685 12.7068 15.22 12.9068H15.211C14.7825 13.0311 14.3648 13.19 13.962 13.3818C13.4074 13.5877 12.9066 13.9164 12.497 14.3433C12.0875 14.7702 11.7798 15.2842 11.597 15.8468C11.026 16.2219 10.5658 16.7429 10.264 17.3558C9.836 18.1558 9.208 18.8648 9.308 19.7698C9.408 20.5498 9.585 21.2538 9.736 22.0588C9.7789 22.3309 9.8459 22.5986 9.936 22.8588C10.036 23.1348 9.936 23.4878 10.087 23.7138C10.162 23.8648 10.112 24.0408 10.314 24.1418V24.3418C10.364 24.3918 10.364 24.4418 10.465 24.4418V24.6418C10.8997 25.0653 11.2723 25.5481 11.572 26.0758C11.672 26.3518 11.094 26.2268 10.872 26.1258C10.4565 25.8553 10.0762 25.5342 9.74 25.1698C9.7125 25.1967 9.6946 25.2318 9.689 25.2698C9.889 25.6218 10.595 26.0498 10.217 26.2758C10.017 26.3758 9.789 26.1248 9.588 26.3268C9.538 26.4018 9.588 26.5028 9.588 26.6028C9.311 26.4028 9.01 26.5028 8.733 26.4028C8.533 26.3528 8.481 25.9758 8.255 25.9758C7.6585 25.8303 7.0537 25.7211 6.444 25.6488C5.8679 25.5624 5.2872 25.5093 4.705 25.4898V14.5208C4.7054 14.4143 4.734 14.3098 4.7877 14.2178C4.8414 14.1258 4.9184 14.0496 5.011 13.9968L19.998 5.23584L34.992 13.9128C35.0846 13.9655 35.1617 14.0417 35.2154 14.1337C35.2692 14.2257 35.2977 14.3303 35.298 14.4368V31.3688ZM27.344 23.1078C27.3138 23.1548 27.2719 23.1932 27.2225 23.2193C27.1731 23.2454 27.1178 23.2583 27.062 23.2568C26.9618 23.3412 26.8676 23.4324 26.78 23.5298C26.88 23.5298 26.78 23.6788 26.88 23.6788C26.675 23.9018 26.957 24.3728 26.675 24.4718C26.3059 24.5708 25.9171 24.5708 25.548 24.4718C25.6029 24.46 25.6589 24.4547 25.715 24.4558H25.8C25.8627 24.4634 25.9263 24.4553 25.9851 24.4323C26.0439 24.4092 26.0961 24.372 26.137 24.3238V24.1238C26.137 24.0738 26.086 24.0738 26.037 24.0738C26.0107 24.1019 25.9752 24.1197 25.937 24.1238C25.9345 24.0788 25.9185 24.0356 25.891 23.9999C25.8635 23.9642 25.8259 23.9377 25.783 23.9238C25.6501 23.9416 25.5148 23.9259 25.3894 23.8782C25.2641 23.8306 25.1526 23.7524 25.065 23.6508C25.2006 23.5857 25.3542 23.5681 25.501 23.6008C25.629 23.6008 25.578 23.3778 25.732 23.2788H25.886C26.193 22.9068 26.757 22.8078 26.86 22.4358C26.86 22.3358 26.578 22.3358 26.373 22.2868C26.0989 22.2532 25.821 22.2702 25.553 22.3368C25.1932 22.3865 24.8405 22.4781 24.502 22.6098C24.7823 22.4041 25.094 22.2451 25.425 22.1388C25.6574 22.0493 25.8978 21.9823 26.143 21.9388L26.275 21.9128L26.408 21.8858C26.5894 21.8316 26.7826 21.8316 26.964 21.8858C27.195 21.9858 27.579 21.9858 27.63 22.1338C27.73 22.4068 27.476 22.6788 27.195 22.8778C27.138 22.9588 27.344 23.0128 27.344 23.1078Z" fill="white"/>
</svg>

<svg xmlns="http://www.w3.org/2000/svg" width="40" height="46" fill="none">
    <path fill="#000091" d="M34.992 13.913 19.998 5.236l-14.994 8.76a.6.6 0 0 0-.306.525v16.948a.67.67 0 0 0 .306.524l14.992 8.6 14.994-8.706a.67.67 0 0 0 .306-.524V14.44a.6.6 0 0 0-.304-.528"/>
    <path fill="#FCC63A" d="M14.64 14.413 9.613 23.04l-4.557-9.175 5.39-3.113 4.489 3.16zm20.657 16.98V14.435a.6.6 0 0 0-.306-.523L19.998 5.236"/>
    <path fill="#0063CB" d="M4.7 31.393 20 5.236v35.362L5.004 31.993a.67.67 0 0 1-.306-.524V14.52zm24.67-20.735 5.457 3.155-4.489 9.15-5.387-9.236z"/>
    <path fill="#fff" d="M39.606 11.118 20.416.098a.93.93 0 0 0-.832 0L.394 11.118a.89.89 0 0 0-.394.695v22a.89.89 0 0 0 .394.7l19.189 11.02a.93.93 0 0 0 .832 0l19.191-11.02a.89.89 0 0 0 .394-.7v-22a.89.89 0 0 0-.394-.695M10.789 28.874h.079c-.042 0-.079.007-.079.05 0 .1.151 0 .2.1a.9.9 0 0 0-.629.276c0 .05.1.05.151.05-.075.1-.226.05-.277.152a.18.18 0 0 0 .1.05c-.05 0-.1 0-.1.05v.152c-.126 0-.176.1-.277.15.2.152.327 0 .528 0-.528.2-.956.479-1.484.63-.1 0 0 .15-.1.15.151.1.227-.05.377-.05-.654.378-1.333.7-2.037 1.133a.35.35 0 0 0-.1.2h-.2c-.1.05-.05.176-.151.277.226.15.5-.2.654 0 .05 0-.1.05-.2.05-.05 0-.05.1-.1.1H6.99c-.1.075-.2.126-.2.276a.22.22 0 0 0-.226.1 9 9 0 0 0 3.144-.578 7.7 7.7 0 0 0 2.088-1.56.18.18 0 0 1 .05.1c-.147.437-.43.816-.806 1.08-.277.152-.478.378-.7.479a4 4 0 0 0-.428.276c-.632.197-1.281.334-1.939.412l-.305.044q-.338.05-.671.108l-1.993-1.138a.65.65 0 0 1-.288-.411.6.6 0 0 0 .094-.063.3.3 0 0 0-.113-.071v-.65a12.8 12.8 0 0 0 3.038-.942 8.8 8.8 0 0 0-3.037-1.343v-1.515a12 12 0 0 1 1.639.392 6.4 6.4 0 0 1 1.182.578q.221.211.478.377a.91.91 0 0 0 .8.05h.33a3.96 3.96 0 0 0 1.937-.905c0 .05.05.05.1.05a3.6 3.6 0 0 1-.428 1.132c.003.05-.048.152.053.202m2.817 3.57c.251-.1.4-.276.629-.376-.05.05-.05.15-.1.2a3.7 3.7 0 0 0-.528.4 16 16 0 0 0-1.585 1.61c-.252.3-.528.578-.8.855q-.144.135-.31.245l-2.527-1.45q.542.045 1.076-.053.442-.124.855-.327v.1c.7-.277 1.232-.906 1.937-1.132.025 0 .126.1.226.05a1.88 1.88 0 0 1 1.509-.7c0 .05 0 .1.05.1h.025c-.151.126-.327.25-.5.377-.057.052-.007.102.043.102m-8.908-6.163v-.186a5.8 5.8 0 0 1 1.588-.188 1.5 1.5 0 0 1 .478 0 5.9 5.9 0 0 0-2.066.374m30.6 5.088a.67.67 0 0 1-.306.524l-10.079 5.85a32 32 0 0 1-3.408-1.184 2.83 2.83 0 0 1-.05-2.245q.12-.464.352-.883c.025-.025.05-.05.05-.076a.025.025 0 0 0 .025-.025 4.3 4.3 0 0 1 .377-.555l.015-.015.02-.021.015-.015c0-.025.025-.05.05-.076.025-.051.075-.076.1-.126q.265-.28.579-.5.32-.116.654-.177 1.217.09 2.415.328a.8.8 0 0 1 .277.1c.301.058.612.041.905-.05a1.14 1.14 0 0 0 .855-.706 1.21 1.21 0 0 0 .05-1.06c-.178-.275-.013-.436.181-.59l.068-.054q.13-.092.231-.216c.126-.252-.1-.4-.151-.63-.05-.1-.226-.05-.327-.2.352-.151.855-.43.629-.857-.151-.227-.377-.63-.1-.857.352-.2.855-.151 1.006-.48a1.14 1.14 0 0 0-.292-1.084l-.075-.108a5 5 0 0 1-.211-.32 7 7 0 0 0-.528-.757 4.3 4.3 0 0 1-.528-1.01c-.151-.377.05-.705.05-1.083a6.4 6.4 0 0 0-.327-2.144c-.126-.353-.176-.731-.327-1.06a1.1 1.1 0 0 0-.226-.58.37.37 0 0 1 0-.327q.308-.217.579-.48a.57.57 0 0 0-.2-.705c-.327-.151-.3.328-.528.429h-.151c-.05-.126.05-.177.151-.277 0-.05 0-.151-.05-.151-.2 0-.377-.051-.428-.151a3.96 3.96 0 0 0-1.861-1.286q.283.087.579.1c.338.071.69.036 1.006-.1.227-.076.277-.48.377-.706a.8.8 0 0 0-.151-.631 2.2 2.2 0 0 0-.906-.756 9 9 0 0 1-.679-.353 1 1 0 0 0-.251-.126c-2.965-1.485-9.069-.2-9.534 0h-.009a8 8 0 0 0-1.249.475 3.92 3.92 0 0 0-2.365 2.465 3.83 3.83 0 0 0-1.333 1.509c-.428.8-1.056 1.509-.956 2.414.1.78.277 1.484.428 2.289q.065.409.2.8c.1.276 0 .629.151.855.075.15.025.327.227.428v.2c.05.05.05.1.151.1v.2c.435.423.807.906 1.107 1.434.1.276-.478.15-.7.05a6 6 0 0 1-1.132-.956.18.18 0 0 0-.051.1c.2.352.906.78.528 1.006-.2.1-.428-.151-.629.05-.05.076 0 .177 0 .277-.277-.2-.578-.1-.855-.2-.2-.05-.252-.427-.478-.427a15 15 0 0 0-1.811-.327 15 15 0 0 0-1.739-.16V14.522a.6.6 0 0 1 .306-.524l14.987-8.761 14.994 8.677a.6.6 0 0 1 .306.524zm-7.954-8.261a.33.33 0 0 1-.282.149 3 3 0 0 0-.282.273c.1 0 0 .149.1.149-.205.223.077.694-.205.793-.37.099-.758.099-1.127 0a.7.7 0 0 1 .167-.016h.085a.38.38 0 0 0 .337-.132v-.2c0-.05-.051-.05-.1-.05a.16.16 0 0 1-.1.05.22.22 0 0 0-.154-.2.8.8 0 0 1-.718-.273.67.67 0 0 1 .436-.05c.128 0 .077-.223.231-.322h.154c.307-.372.871-.471.974-.843 0-.1-.282-.1-.487-.15a2.3 2.3 0 0 0-.82.05c-.36.05-.713.142-1.051.274.28-.206.592-.365.923-.471q.35-.135.718-.2l.132-.026.133-.027a.97.97 0 0 1 .556 0c.231.1.615.1.666.248.1.273-.154.545-.435.744-.057.08.149.135.149.23"/>
</svg>
